client/public/img/killfeed/model_37_killfeed.svg

<?xml version="1.0" encoding="UTF-8" standalone="no"?>
<!-- Created with Inkscape (http://www.inkscape.org/) -->

<svg
   width="84.53923"
   height="16"
   viewBox="0 0 22.367671 4.2333333"
   version="1.1"
   id="svg1"
   xml:space="preserve"
   xmlns="http://www.w3.org/2000/svg"
   xmlns:svg="http://www.w3.org/2000/svg"><defs
     id="defs1" /><g
     id="layer1"
     transform="translate(-0.08514058,-0.0438214)"><g
       id="g3"
       transform="matrix(0.9055535,0,0,0.9055535,0.08514058,0.64787448)"><path
         style="fill:#d9d9d9;fill-opacity:1;stroke:#d9d9d9;stroke-width:0.0845757;stroke-linecap:butt;stroke-linejoin:miter;stroke-dasharray:none;stroke-opacity:1"
         d="m 13.2205,0.656031 1e-6,0.13693236 0.102208,0.0590093 -0.01803,0.0673688 -1.892637,0.12291394 V 0.59987038 l 1.404701,-0.0983136 z"
         id="path30" /><path
         style="display:inline;fill:#d9d9d9;fill-opacity:1;stroke:#d9d9d9;stroke-width:0.169152;stroke-linecap:butt;stroke-linejoin:miter;stroke-dasharray:none;stroke-opacity:1"
         d="m 7.6372725,1.2671556 2.0663345,0.048797 -2.4e-6,-0.091782 1.1328984,2.4e-6 c 0.03576,-9.1e-6 0.08641,0.042535 0.107143,0.09346 l 0.233325,8e-7 10e-7,-1.12146012 -2.8329301,1.7e-7 -0.9374269,0.0847981 z"
         id="path1" /><path
         style="display:inline;fill:#d9d9d9;fill-opacity:1;stroke:#d9d9d9;stroke-width:0.169152;stroke-linecap:butt;stroke-linejoin:miter;stroke-dasharray:none;stroke-opacity:1"
         d="m 17.001872,0.82807301 0.435373,-2.26e-6 -3e-6,-0.24928019 0.435365,-10e-9 5e-6,0.13692702 c -0.240115,3.4e-6 -0.352859,0.0830663 -0.352859,0.21593105 l 2e-6,0.17730598 -0.02985,0.024569 -6e-6,0.1246715 c -0.05527,-1.3e-6 -0.110725,-0.040852 -0.110727,0.060326 l -0.486142,-2.7e-6 -5e-6,-0.52556539 z"
         id="path3" /><path
         id="rect1"
         style="display:inline;fill:#d9d9d9;stroke:#d9d9d9;stroke-width:0.169152"
         d="M 11.412042,0.25512292 H 21.653076 V 0.55304333 H 11.412042 Z" /><path
         id="rect2"
         style="display:inline;fill:#d9d9d9;stroke:#d9d9d9;stroke-width:0.169152"
         d="m 11.412042,0.9552368 h 2.149944 v 0.2830243 h -2.149944 z" /><path
         style="display:inline;fill:#d9d9d9;fill-opacity:1;stroke:#d9d9d9;stroke-width:0.169152;stroke-linecap:butt;stroke-linejoin:miter;stroke-dasharray:none;stroke-opacity:1"
         d="m 16.963253,0.62092162 -2e-6,0.32301692"
         id="path2" /><path
         style="display:inline;fill:#d9d9d9;fill-opacity:1;stroke:#d9d9d9;stroke-width:0.169152;stroke-linecap:butt;stroke-linejoin:miter;stroke-dasharray:none;stroke-opacity:1"
         d="m 13.796311,0.83703743 c 1.103491,-0.0728388 2.725282,-0.056699 2.868595,0.0866137 l 3e-6,0.38480867 c -0.102994,0.1783912 -1.72924,0.2278778 -2.868605,0.126864 z"
         id="path5" /><path
         style="fill:#d9d9d9;fill-opacity:1;stroke:#d9d9d9;stroke-width:0.0845757;stroke-linecap:round;stroke-linejoin:round;stroke-dasharray:none;stroke-opacity:1"
         d="M 8.3360514,1.4835035 C 8.1895052,1.6343285 8.1971342,1.7448574 8.2570568,1.8808188 8.2245464,1.8106293 8.1536575,1.7447182 8.1605036,1.6701597 l -0.036866,-0.1866562 0.059686,0.00349 -4e-7,-0.00349 z"
         id="path29" /><path
         style="fill:none;fill-opacity:1;stroke:#d9d9d9;stroke-width:0.169152;stroke-linecap:butt;stroke-linejoin:miter;stroke-dasharray:none;stroke-opacity:1"
         d="m 8.015542,1.44005 -9.3e-6,0.3521277 c 2.22e-5,0.1201083 0.08706,0.2074643 0.2267693,0.2074636 l 0.3648387,-2.6e-6 c 0.2547264,4e-7 0.3120052,-0.066977 0.3177464,-0.2131284 l 6.8e-6,-0.3605114"
         id="path27" /><g
         id="g2"
         transform="translate(0.00894402,0.08457542)"><path
           style="display:inline;fill:#d9d9d9;fill-opacity:1;stroke:#d9d9d9;stroke-width:0.169152;stroke-linecap:butt;stroke-linejoin:miter;stroke-dasharray:none;stroke-opacity:1"
           d="M 0.24301777,1.4070829 0.22897425,3.7945813 4.364965,2.2637723 c 0.093031,-0.024928 0.1257081,-0.044334 0.2387495,-0.014045 l 0.042135,0.1544851 0.7583806,0.1895983 C 6.2128346,1.2205268 6.8521338,1.4167937 7.3774263,1.231528 L 7.1562351,0.24141912 C 6.7714999,0.37779813 6.3586216,0.56688224 6.0643044,0.8382981 5.9438428,0.95874581 5.543416,1.1354409 5.0109947,0.99278245 4.7159344,0.93954782 1.8370299,1.2689822 0.24301777,1.4070829 Z"
           id="path4" /><path
           style="fill:#d9d9d9;fill-opacity:1;stroke:#d9d9d9;stroke-width:0.168995;stroke-linecap:butt;stroke-linejoin:miter;stroke-dasharray:none;stroke-opacity:1"
           d="M 0.11772574,1.4213755 0.24437419,1.4062137 0.2241051,3.7971186 0.08449772,3.8212927 C 0.15148177,3.0311199 0.13477831,2.2050862 0.11772574,1.4213755 Z"
           id="path26" /></g><circle
         style="fill:#d9d9d9;fill-opacity:1;stroke:#d9d9d9;stroke-width:0.169152;stroke-linecap:butt;stroke-linejoin:miter;stroke-dasharray:none;stroke-opacity:1"
         id="path33"
         cx="21.561047"
         cy="0.1673734"
         r="0.082797401" /><path
         d="M 21.845407,0.2309367 24.532621,-0.667054 23.7521,0.1039605 24.594348,0.4488264 23.7521,0.7864188 l 0.948452,0.664173 -2.855145,-0.8739267 0.113824,-0.053242 -0.113824,-0.083815 0.06189,-0.1251532 z"
         fill="#d9d9d9"
         id="path1-3-9"
         style="stroke-width:0.264583" /></g></g></svg>

<svg xmlns="http://www.w3.org/2000/svg" xml:space="preserve" width="84.539" height="16" viewBox="0 0 22.368 4.233"><g transform="translate(0 .604)scale(.90555)"><path d="M13.22.656v.137l.103.059-.018.067-1.893.123V.6l1.405-.098z" style="fill:#d9d9d9;fill-opacity:1;stroke:#d9d9d9;stroke-width:.0845757;stroke-linecap:butt;stroke-linejoin:miter;stroke-dasharray:none;stroke-opacity:1"/><path d="m7.637 1.267 2.067.049v-.092h1.133c.035 0 .086.043.107.094h.233V.196H8.344l-.937.085zm9.365-.439h.435v-.25h.436v.138c-.24 0-.353.083-.353.216v.177l-.03.025v.124c-.055 0-.11-.04-.11.06h-.487V.794z" style="display:inline;fill:#d9d9d9;fill-opacity:1;stroke:#d9d9d9;stroke-width:.169152;stroke-linecap:butt;stroke-linejoin:miter;stroke-dasharray:none;stroke-opacity:1"/><path d="M11.412.255h10.241v.298H11.412Zm0 .7h2.15v.283h-2.15z" style="display:inline;fill:#d9d9d9;stroke:#d9d9d9;stroke-width:.169152"/><path d="M16.963.62v.324M13.796.837C14.9.764 16.522.78 16.665.924v.384c-.103.179-1.73.228-2.869.127z" style="display:inline;fill:#d9d9d9;fill-opacity:1;stroke:#d9d9d9;stroke-width:.169152;stroke-linecap:butt;stroke-linejoin:miter;stroke-dasharray:none;stroke-opacity:1"/><path d="M8.336 1.484c-.146.15-.139.26-.079.397-.032-.07-.103-.136-.096-.21l-.037-.187.06.003v-.003z" style="fill:#d9d9d9;fill-opacity:1;stroke:#d9d9d9;stroke-width:.0845757;stroke-linecap:round;stroke-linejoin:round;stroke-dasharray:none;stroke-opacity:1"/><path d="M8.016 1.44v.352c0 .12.087.208.226.208h.365c.255 0 .312-.067.318-.213v-.361" style="fill:none;fill-opacity:1;stroke:#d9d9d9;stroke-width:.169152;stroke-linecap:butt;stroke-linejoin:miter;stroke-dasharray:none;stroke-opacity:1"/><path d="M.243 1.407.229 3.795l4.136-1.531c.093-.025.126-.045.239-.014l.042.154.758.19c.809-1.373 1.448-1.177 1.973-1.362l-.22-.99c-.386.136-.798.325-1.093.596-.12.12-.52.297-1.053.155-.295-.053-3.174.276-4.768.414Z" style="display:inline;fill:#d9d9d9;fill-opacity:1;stroke:#d9d9d9;stroke-width:.169152;stroke-linecap:butt;stroke-linejoin:miter;stroke-dasharray:none;stroke-opacity:1" transform="translate(.009 .085)"/><path d="m.118 1.421.126-.015-.02 2.391-.14.024c.067-.79.05-1.616.034-2.4Z" style="fill:#d9d9d9;fill-opacity:1;stroke:#d9d9d9;stroke-width:.168995;stroke-linecap:butt;stroke-linejoin:miter;stroke-dasharray:none;stroke-opacity:1" transform="translate(.009 .085)"/><circle cx="21.561" cy=".167" r=".083" style="fill:#d9d9d9;fill-opacity:1;stroke:#d9d9d9;stroke-width:.169152;stroke-linecap:butt;stroke-linejoin:miter;stroke-dasharray:none;stroke-opacity:1"/><path fill="#d9d9d9" d="m21.845.23 2.688-.897-.78.771.841.345-.842.337.949.665-2.856-.874.114-.054-.114-.083.062-.126z" style="stroke-width:.264583"/></g></svg>
